!!!!SEGMENT: pl-kk--kk-i-6--036-001_anonim--missa-in-defectu-kyrie.krn
!!!cenid: 16xx:1011
!!!COM: Anonim
!!!COM-rismid: pe30004985
!!!CDT:
!!!CNT:
!!!OTL: Missa in defectu – Kyrie
!!!PDT:
!!!AGN: Sacred; Mass
!!!SMS-siglum: PL-Kk
!!!SMS-shelfmark: Kk.I.6
!!!SMS-shelfwork: 036-001 M
!!!SMS-variant:
!!!SMS-altvar:
!!!NIFC-rismid: 1001136224
!!!URL-scan: http://repozytorium.nifc.pl/skany/pl-kk-nut--i-6
!!!ONB-nifc: UWAGA: C (brak), T (skan 0154-0158, s. 112-120), B (skan 0264-0268, s. 110-119) Części Mszy; 1. Kyrie, 2. Et in terra, 3. Patrem, 4. Sanctus, 5. Agnus Dei
**kern	**text	**kern	**text	**kern
*part3	*part3	*part2	*part2	*part1
*staff3	*staff3	*staff2	*staff2	*staff1
*group1	*	*group1	*	*group1
*I"Baſsus.	*	*I"Tenor.	*	*I"Cantus.
*I'B	*	*I'T	*	*I'S
*clefF4	*	*clefC4	*	*clefC1
*k[]	*	*k[]	*	*k[]
*a:	*	*a:	*	*a:
*M2/1	*	*M2/1	*	*M2/1
*met(C|)	*	*met(C|)	*	*met(C|)
*all\right	*	*all\right	*	*
=1-	=1-	=1-	=1-	=1-
*2\right	*	*	*	*
!LO:TX:a:t=Miſsa in defectu Vnius Contralt(us)\n2 T. B. a 3. Vocl D S. B P. C M S R M.	!	!LO:TX:a:t=Miſsa in defectu Contráált(us)\na 2 TT. B. auth D S. B P C M S R M.	!	!LO:TX:a:t=P:problem:w źródle brak partii
2.A\	Ky-	00r	.	0ryy
4A\	-rie	.	.	.
2.E\	.	.	.	.
4F\	.	.	.	.
=2-	=2-	=2-	=2-	=2-
2G\	.	.	.	0ryy
2A\	e-	.	.	.
1F	-ley-	.	.	.
=3-	=3-	=3-	=3-	=3-
4E\	.	00r	.	0ryy
4F#X\	.	.	.	.
4G\	.	.	.	.
4E\	.	.	.	.
4F#X\	.	.	.	.
4D\	.	.	.	.
4F#\	.	.	.	.
!LO:TX:a:t=P:problem:# above	!	!	!	!
4G#X\	.	.	.	.
=4-	=4-	=4-	=4-	=4-
4A\	.	.	.	0ryy
4Gny\	.	.	.	.
!LO:TX:a:t=P:problem:# above	!	!	!	!
4F#X\	.	.	.	.
8E\L	.	.	.	.
8F#\J	.	.	.	.
4G\	.	.	.	.
2A\	.	.	.	.
!LO:TX:a:t=P:problem:# above	!	!	!	!
4G#X\	.	.	.	.
=5-	=5-	=5-	=5-	=5-
2A\	-son	2.A/	Ky-	0ryy
!LO:SIC:v:t=custos C	!	!	!	!
2AA/	E-	.	.	.
.	.	4A/	-rie	.
!LO:LB:g=original	!	!	!	!
1C	-ley-	2.E/	.	.
.	.	4F/	.	.
=6-	=6-	=6-	=6-	=6-
2BB/	.	2G/	e-	0ryy
2C/	.	2A/	.	.
2AA/	.	1F	-ley-	.
2BB/	.	.	.	.
=7-	=7-	=7-	=7-	=7-
2.C/	.	2E/	.	0ryy
.	.	1A	.	.
4D/	.	.	.	.
1E	.	.	.	.
.	.	2G#X/	.	.
=8-	=8-	=8-	=8-	=8-
*	*	*2\right	*	*
2.AA/	.	2.c\	.	0ryy
4BB/	.	4d\	.	.
2C/	.	4e\	.	.
.	.	4A/	.	.
2D/	.	4f\	.	.
.	.	4e\	.	.
=9-	=9-	=9-	=9-	=9-
1BB	.	4d\	.	0ryy
.	.	4c\	.	.
.	.	2d\	.	.
2AA/	-son	1c	.	.
*	*ij	*	*	*
1A\	E-	.	.	.
=10-	=10-	=10-	=10-	=10-
.	.	1B	son	0ryy
4G#X\	.	.	.	.
4A\	.	.	.	.
2B\	.	1.e	Ky-	.
4c\	.	.	.	.
4B\	.	.	.	.
=11-	=11-	=11-	=11-	=11-
4A\	.	.	.	0ryy
4Gny\	.	.	.	.
2.A\	.	2d\	-rie	.
.	.	2c\	e-	.
8G\L	.	.	.	.
!LO:TX:a:t=P:problem:# above	!	!	!	!
8F#X\J	.	.	.	.
2G#X\	-ley-	2B\	-ley-	.
=12-	=12-	=12-	=12-	=12-
0Al;<	-son	0c#lX;<	-son	0ryy
*	*Xij	*	*	*
!LO:PB:g=original	!	!LO:LB:g=original	!	!
=13||	=13||	=13||	=13||	=13||
*M2/1	*	*M2/1	*	*
*met(C|)	*	*met(C|)	*	*
2.AA/	CHri-	1rA	.	0ryy
4BB/	-ſte	.	.	.
4C/	.	2.E/	CHriſ-	.
4AA/	e-	.	.	.
4C/	.	.	.	.
4D/	.	4F#X/	-te	.
=14-	=14-	=14-	=14-	=14-
2.E\	.	4Gny/	e-	0ryy
.	.	4E/	.	.
.	.	4G/	.	.
!LO:TX:a:t=P:problem:# above	!	!	!	!
4F#X\	.	4A/	.	.
!LO:TX:a:t=P:problem:# above	!	!	!	!
4G#X\	.	2B\	.	.
4E\	.	.	.	.
1A\	-ley-	2cny\	.	.
=15-	=15-	=15-	=15-	=15-
.	.	1B	-ley-	0ryy
2Gny\	.	.	.	.
2.A\	.	1A	-son	.
4G\	.	.	.	.
=16-	=16-	=16-	=16-	=16-
4Fny\	.	1rA	.	0ryy
4A\	.	.	.	.
4F\	.	.	.	.
4E\	.	.	.	.
*	*	*	*ij	*
4D/	.	2.A\	CHris-	.
!LO:TX:b:t=P:problem:# below	!	!	!	!
4C#X/	.	.	.	.
2D/	.	.	.	.
.	.	4B\	-te	.
=17-	=17-	=17-	=17-	=17-
1AA	-son	4c\	.	0ryy
.	.	4A/	.	.
.	.	4c\	e-	.
.	.	4d\	.	.
0rC	.	2e\	.	.
.	.	4A/	.	.
.	.	4B\	.	.
=18-	=18-	=18-	=18-	=18-
.	.	4c\	.	0ryy
.	.	4B\	.	.
.	.	4A/	.	.
.	.	8G/L	.	.
!	!	!LO:TX:b:t=P:problem:# below	!	!
.	.	8F#X/J	.	.
*	*ij	*	*	*
2.E\	CHri-	2G/	.	.
.	.	2B\	.	.
!LO:SIC:v:t=custos C	!	!	!	!
4D/	.	.	.	.
!LO:LB:g=original	!	!	!	!
=19-	=19-	=19-	=19-	=19-
4Cny/	-ſte	4c\	ley-	0ryy
!	!	!LO:SIC:v:t=custos A	!	!
4E/	.	4G/	.	.
!	!	!LO:LB:g=original	!	!
4C/	.	4A/	.	.
4BB/	.	4B\	.	.
2AA/	e-	2E/	-son	.
4A\	.	2rF	.	.
4G\	.	.	.	.
=20-	=20-	=20-	=20-	=20-
4F\	.	2.A/	CHris-	0ryy
4A\	.	.	.	.
4F\	.	.	.	.
4E\	.	4G/	-te	.
2.D/	.	4Fny/	e-	.
.	.	4A/	.	.
.	.	4F/	.	.
!LO:TX:b:t=P:problem:# below	!	!	!	!
4C#X/	.	4E/	.	.
=21-	=21-	=21-	=21-	=21-
1D	.	2F/	.	0ryy
.	.	2f\	.	.
1.AA	.	2.e\	.	.
.	.	4d\	.	.
=22-	=22-	=22-	=22-	=22-
.	.	2c\	.	0ryy
!LO:TX:b:t=P:problem:# below	!	!	!	!
2GG#X/	.	2.B\	.	.
1AA	-ley-	.	.	.
.	.	8A/L	.	.
.	.	8G/J	.	.
.	.	2A/	ley-	.
=23-	=23-	=23-	=23-	=23-
0El;	-son	0G#Xl;	-son	0ryy
*	*Xij	*	*Xij	*
!LO:LB:g=original	!	!LO:PB:g=original	!	!
=24||	=24||	=24||	=24||	=24||
*M2/1	*	*M2/1	*	*
*met(C|)	*	*met(C|)	*	*
0r	.	1E	Ky-	0ryy
.	.	2F#X/	-rie	.
.	.	2G/	.	.
=25-	=25-	=25-	=25-	=25-
1A	Ky-	1A	e-	0ryy
2G\	-ri-	2B\	.	.
2E\	-e	2c#X\	.	.
=26-	=26-	=26-	=26-	=26-
*	*	*lig	*	*
4D\	e-	1d	-ley-	0ryy
4E\	.	.	.	.
4F\	.	.	.	.
4G\	.	.	.	.
2A\	.	1cny	.	.
2AA/	.	.	.	.
*	*	*Xlig	*	*
=27-	=27-	=27-	=27-	=27-
2BB/	.	2d\	.	0ryy
2C#X/	.	2.e\	.	.
1D	-ley-	.	.	.
.	.	8d\L	.	.
.	.	8c\J	.	.
.	.	2d\	.	.
=28-	=28-	=28-	=28-	=28-
1AA	-son	1c	.	0ryy
2r	.	1B	-son	.
*	*ij	*	*	*
2E\	e-	.	.	.
=29-	=29-	=29-	=29-	=29-
2F#X\	-ley-	1r	.	0ryy
2G#X\	.	.	.	.
1A	-son	2r	.	.
*	*Xij	*	*ij	*
.	.	2A/	Ky-	.
=30-	=30-	=30-	=30-	=30-
1E	Ky-	2G/	-rie	0ryy
.	.	2E/	e-	.
2D/	-ri-	2F#X/	.	.
!	!	!LO:SIC:v:t=custos A	!	!
2BB/	-e	2G#X/	.	.
!	!	!LO:LB:g=original	!	!
=31-	=31-	=31-	=31-	=31-
4AA/	e-	1A	-ley-	0ryy
4BB/	.	.	.	.
4Cny/	.	.	.	.
4D/	.	.	.	.
!	!	!LO:N:acc=-	!	!
4E\	.	1GX	-son	.
4Fny\	.	.	.	.
4Gny\	.	.	.	.
!LO:SIC:v:t=custos F	!	!	!	!
4A\	.	.	.	.
!LO:LB:g=original	!	!	!	!
=32-	=32-	=32-	=32-	=32-
*lig	*	*	*	*
1F	.	2r	.	0ryy
.	.	2A/	Ky-	.
1E	.	2B\	-rie	.
.	.	2c#X\	e-	.
*Xlig	*	*	*	*
=33-	=33-	=33-	=33-	=33-
*	*	*lig	*	*
2D\	-lei-	1d	.	0ryy
2D\	-son	.	.	.
2E\	e-	1cny	.	.
2F#X\	-lei-	.	.	.
*	*	*Xlig	*	*
=34-	=34-	=34-	=34-	=34-
2G\	-son	2B\	.	0ryy
2E\	.	2e\	.	.
*	*ij	*	*	*
!LO:TX:t=P:problem:# above	!	!	!	!
2F#X\	e-	2d\	.	.
!LO:TX:t=P:problem:# above	!	!	!	!
2G#X\	-lei-	2B\	.	.
=35-	=35-	=35-	=35-	=35-
2A\	.	2c\	.	0ryy
2G#X\	.	2.B\	.	.
1A	.	.	.	.
.	.	8A/L	.	.
.	.	8G/J	.	.
.	.	2A/	-ley-	.
=36-	=36-	=36-	=36-	=36-
0El;	-son	0G#Xl;	-son	0ryy
*	*Xij	*	*Xij	*
==	==	==	==	==
*-	*-	*-	*-	*-
!!!system-decoration: [g1]
!!!RDF**kern: > = above
!!!RDF**kern: < = below
!!!RDF**kern: l = terminal long
!!!ENC: Andrzej Kubiczek
!!!END: 2021-03-24
!!!ENC: Berenika Jozajtis
!!!END: 2021-03-09
